build/flags/Canada.svg

<svg xmlns="http://www.w3.org/2000/svg" fill="none" viewBox="0 0 28 28" focusable="false"><defs><filter id="Canada_svg__a"><feColorMatrix values="0 0 0 0 1 0 0 0 0 1 0 0 0 0 1 0 0 0 1 0"/></filter></defs><mask id="Canada_svg__b" width="28" height="20" x="0" y="4" maskUnits="userSpaceOnUse"><g filter="url(#Canada_svg__a)"><rect width="28" height="20" y="4" fill="#FFF" rx="3"/><rect width="27.5" height="19.5" x=".25" y="4.25" stroke="#F5F5F5" stroke-width=".5" rx="2.75"/></g></mask><path fill="none" d="M0 0H28V28H0z"/><rect width="28" height="20" y="4" fill="#FFF" rx="3"/><rect width="27.5" height="19.5" x=".25" y="4.25" stroke="#D6D8DD" stroke-width=".5" rx="2.75"/><g mask="url(#Canada_svg__b)"><path fill="#FF3131" d="M20 4H28V24H20z"/><path d="M20 4H28V24H20z"/><path fill="#FF3131" fill-rule="evenodd" d="M0 24L8 24L8 4L0 4L0 24Z"/><path d="M8 24L8 4L0 4L0 24L8 24Z"/><path fill="#FF3131" fill-rule="evenodd" d="M16.1118 13.2215C15.8786 13.4547 15.4845 13.2438 15.5492 12.9204L16 10.6666L14.6666 11.3333L14 9.33331L13.3333 11.3333L12 10.6666L12.4507 12.9204C12.5154 13.2438 12.1214 13.4547 11.8882 13.2215L11.569 12.9023C11.4388 12.7722 11.2278 12.7722 11.0976 12.9023L10.6666 13.3333L9.33331 12.6666L9.99998 14L9.56901 14.4309C9.43884 14.5611 9.43884 14.7722 9.56902 14.9023L11.3333 16.6666L13.3333 16.6666L13.6666 18.6666L14.3333 18.6666L14.6666 16.6666L16.6666 16.6666L18.4309 14.9023C18.5611 14.7722 18.5611 14.5611 18.4309 14.4309L18 14L18.6666 12.6666L17.3333 13.3333L16.9023 12.9023C16.7722 12.7722 16.5611 12.7722 16.4309 12.9023L16.1118 13.2215Z"/><path d="M16 10.6666L14.6666 11.3333L14 9.33331L13.3333 11.3333L12 10.6666L12.4507 12.9204C12.5154 13.2438 12.1214 13.4547 11.8882 13.2215L11.569 12.9023C11.4388 12.7722 11.2278 12.7722 11.0976 12.9023L10.6666 13.3333L9.33331 12.6666L9.99998 14L9.56902 14.4309C9.43884 14.5611 9.43884 14.7722 9.56902 14.9023L11.3333 16.6666L13.3333 16.6666L13.6666 18.6666L14.3333 18.6666L14.6666 16.6666L16.6666 16.6666L18.4309 14.9023C18.5611 14.7722 18.5611 14.5611 18.4309 14.4309L18 14L18.6666 12.6666L17.3333 13.3333L16.9023 12.9023C16.7722 12.7722 16.5611 12.7722 16.4309 12.9023L16.1118 13.2215C15.8786 13.4547 15.4845 13.2438 15.5492 12.9204L16 10.6666Z"/></g></svg>

<svg xmlns="http://www.w3.org/2000/svg" fill="none" viewBox="0 0 28 28" focusable="false"><path fill="none" d="M0 0h28v28H0z"/><rect width="28" height="20" y="4" fill="#FFF" rx="3"/><rect width="27.5" height="19.5" x=".25" y="4.25" stroke="#D6D8DD" stroke-width=".5" rx="3"/><mask id="Canada_svg__a" width="28" height="20" x="0" y="4" mask-type="alpha" maskUnits="userSpaceOnUse"><rect width="28" height="20" y="4" fill="#FFF" rx="3"/><rect width="27.5" height="19.5" x=".25" y="4.25" stroke="#F5F5F5" stroke-width=".5" rx="3"/></mask><g mask="url(#Canada_svg__a)"><path fill="#FF3131" d="M20 4h8v20h-8z"/><path d="M20 4h8v20h-8z"/></g><g mask="url(#Canada_svg__a)"><path fill="#FF3131" fill-rule="evenodd" d="M0 24h8V4H0z"/><path d="M8 24V4H0v20z"/></g><g mask="url(#Canada_svg__a)"><path fill="#FF3131" fill-rule="evenodd" d="M16.11 13.22c-.24.23-.63.02-.57-.3l.46-2.26-1.34.67-.66-2-.67 2-1.33-.67.45 2.26c.06.32-.33.53-.57.3l-.32-.32a.33.33 0 0 0-.47 0l-.43.43-1.33-.67L10 14l-.44.43c-.13.13-.13.34 0 .47l1.77 1.76h2l.33 2h.67l.33-2h2l1.77-1.76c.13-.13.13-.34 0-.47L18 14l.66-1.34-1.33.67-.43-.43a.33.33 0 0 0-.47 0z"/><path d="m16 10.66-1.34.67-.66-2-.67 2-1.33-.67.45 2.26c.06.32-.33.53-.57.3l-.32-.32a.33.33 0 0 0-.47 0l-.43.43-1.33-.67L10 14l-.44.43c-.13.13-.13.34 0 .47l1.77 1.76h2l.33 2h.67l.33-2h2l1.77-1.76c.13-.13.13-.34 0-.47L18 14l.66-1.34-1.33.67-.43-.43a.33.33 0 0 0-.47 0l-.32.32c-.24.23-.63.02-.57-.3z"/></g></svg>
